symbolic/24x24/mimetypes/application-x-gcstar.svg

<svg xmlns="http://www.w3.org/2000/svg" width="24" height="24" version="1.1">
 <path style="opacity:0.2" d="m 5,2.5 c -0.554,0 -1,0.446 -1,1 v 18 c 0,0.554 0.446,1 1,1 h 14 c 0.554,0 1,-0.446 1,-1 v -13 l -6,-6 z"/>
 <path style="fill:#1d81e8" d="M 5,2 C 4.446,2 4,2.446 4,3 v 18 c 0,0.554 0.446,1 1,1 h 14 c 0.554,0 1,-0.446 1,-1 V 8 L 15,7 14,2 Z"/>
 <path style="opacity:0.2" d="m 20,8.5 -6,-6 v 5 c 0,0.554 0.446,1 1,1 z"/>
 <path style="fill:#4d9cec" d="M 20,8 14,2 v 5 c 0,0.554 0.446,1 1,1 z"/>
 <path style="opacity:0.2;fill:#ffffff" d="M 5,2 C 4.446,2 4,2.446 4,3 v 0.5 c 0,-0.554 0.446,-1 1,-1 h 9 V 2 Z"/>
 <path style="opacity:0.2" d="m 12,10.5 c -2.7614235,0 -5,2.238577 -5,5 0,2.761423 2.2385765,5 5,5 2.761423,0 5,-2.238577 5,-5 0,-2.761423 -2.238577,-5 -5,-5 z m -2.138672,3.000069 c 0.591133,-0.01442 1.147058,0.476149 1.329102,1.172852 0.211429,0.808704 -0.150208,1.610692 -0.807617,1.791015 -0.657294,0.181156 -1.361819,-0.327886 -1.5732425,-1.136718 -0.210898,-0.808347 0.1506325,-1.60966 0.807617,-1.790039 0.079391,-0.02228 0.1611795,-0.03472 0.2441405,-0.03711 z m 4.277344,0 c 0.08293,0.0021 0.164721,0.01418 0.244141,0.03613 0.657391,0.180329 1.019024,0.982307 0.807617,1.791016 -0.211433,0.808841 -0.915955,1.317881 -1.573242,1.136718 -0.657392,-0.18033 -1.019025,-0.982307 -0.807617,-1.791016 0.182052,-0.69671 0.737974,-1.187278 1.329101,-1.172853 z"/>
 <path style="fill:#ffc05b" d="m 12,10 c -2.7614235,0 -5,2.238577 -5,5 0,2.761423 2.2385765,5 5,5 2.761423,0 5,-2.238577 5,-5 0,-2.761423 -2.238577,-5 -5,-5 z m -2.138672,3.000069 c 0.591133,-0.01442 1.147058,0.476149 1.329102,1.172852 0.211429,0.808704 -0.150208,1.610692 -0.807617,1.791015 -0.657294,0.181156 -1.361819,-0.327886 -1.5732425,-1.136718 -0.210898,-0.808347 0.1506325,-1.60966 0.807617,-1.790039 0.079391,-0.02228 0.1611795,-0.03472 0.2441405,-0.03711 z m 4.277344,0 c 0.08293,0.0021 0.164721,0.01418 0.244141,0.03613 0.657391,0.180329 1.019024,0.982307 0.807617,1.791016 -0.211433,0.808841 -0.915955,1.317881 -1.573242,1.136718 -0.657392,-0.18033 -1.019025,-0.982307 -0.807617,-1.791016 0.182052,-0.69671 0.737974,-1.187278 1.329101,-1.172853 z"/>
 <path style="fill:#ffffff;opacity:0.2" d="M 12 10 C 9.2385765 10 7 12.238577 7 15 C 7 15.084307 7.0075944 15.166717 7.0117188 15.25 C 7.1426836 12.605385 9.3228833 10.5 12 10.5 C 14.677116 10.5 16.857316 12.605385 16.988281 15.25 C 16.992406 15.166717 17 15.084307 17 15 C 17 12.238577 14.761423 10 12 10 z M 8.7773438 14.640625 C 8.7478506 14.860769 8.7487709 15.091345 8.8105469 15.328125 C 9.0219704 16.136957 9.7255185 16.646 10.382812 16.464844 C 10.989497 16.298434 11.339639 15.601346 11.224609 14.859375 C 11.154164 15.392158 10.848336 15.837154 10.382812 15.964844 C 9.7255185 16.146 9.0219704 15.636957 8.8105469 14.828125 C 8.7942295 14.765582 8.786936 14.702799 8.7773438 14.640625 z M 15.224609 14.642578 C 15.215013 14.704229 15.207616 14.766118 15.191406 14.828125 C 14.979973 15.636966 14.274475 16.146007 13.617188 15.964844 C 13.152382 15.837342 12.848434 15.39302 12.777344 14.861328 C 12.663129 15.602669 13.010978 16.298554 13.617188 16.464844 C 14.274475 16.646007 14.979973 16.136966 15.191406 15.328125 C 15.253082 15.092193 15.253593 14.862096 15.224609 14.642578 z"/>
</svg>

<svg xmlns="http://www.w3.org/2000/svg" width="24" height="24"><path style="opacity:.2" d="M5 2.5c-.554 0-1 .446-1 1v18c0 .554.446 1 1 1h14c.554 0 1-.446 1-1v-13l-6-6z"/><path style="fill:#1d81e8" d="M5 2c-.554 0-1 .446-1 1v18c0 .554.446 1 1 1h14c.554 0 1-.446 1-1V8l-5-1-1-5z"/><path style="opacity:.2" d="m20 8.5-6-6v5c0 .554.446 1 1 1z"/><path style="fill:#4d9cec" d="m20 8-6-6v5c0 .554.446 1 1 1z"/><path style="opacity:.2;fill:#fff" d="M5 2c-.554 0-1 .446-1 1v.5c0-.554.446-1 1-1h9V2z"/><path style="opacity:.2" d="M12 10.5a5 5 0 1 0 0 10 5 5 0 0 0 0-10zm-2.139 3c.591-.014 1.147.476 1.33 1.173.21.809-.15 1.61-.808 1.79-.657.182-1.362-.327-1.573-1.136-.211-.808.15-1.61.807-1.79a1.01 1.01 0 0 1 .244-.037zm4.278 0c.083.002.164.014.244.036.657.18 1.019.983.807 1.791-.211.81-.916 1.318-1.573 1.137-.657-.18-1.019-.982-.807-1.791.182-.697.738-1.187 1.329-1.173z"/><path style="fill:#ffc05b" d="M12 10a5 5 0 1 0 0 10 5 5 0 0 0 0-10zm-2.139 3c.591-.014 1.147.476 1.33 1.173.21.809-.15 1.61-.808 1.79-.657.182-1.362-.327-1.573-1.136-.211-.808.15-1.61.807-1.79A1.01 1.01 0 0 1 9.861 13zm4.278 0c.083.002.164.014.244.036.657.18 1.019.983.807 1.791-.211.81-.916 1.318-1.573 1.137-.657-.18-1.019-.982-.807-1.791.182-.697.738-1.187 1.329-1.173z"/><path style="fill:#fff;opacity:.2" d="M12 10a5 5 0 0 0-5 5c0 .084.008.167.012.25A4.996 4.996 0 0 1 12 10.5a4.996 4.996 0 0 1 4.988 4.75c.004-.083.012-.166.012-.25a5 5 0 0 0-5-5zm-3.223 4.64c-.03.22-.028.451.034.688.211.809.915 1.318 1.572 1.137.606-.167.957-.864.842-1.606-.07.533-.377.978-.842 1.106-.657.181-1.361-.328-1.572-1.137-.017-.062-.024-.125-.034-.187zm6.448.003c-.01.061-.017.123-.034.185-.211.809-.917 1.318-1.574 1.137-.465-.128-.769-.572-.84-1.104-.114.742.234 1.438.84 1.604.657.181 1.363-.328 1.574-1.137.062-.236.063-.466.034-.685z"/></svg>
